X:1
T:Ross, 77.77
T:Ross, 77.77
T:Samuel Sebastian Wesley, 1874
T:Public Domain Courtesy of the Cyber Hymnal™
C:Samuel Sebastian Wesley, 1874
Z:Public Domain
Z:Courtesy of the Cyber Hymnal™
%%score ( 1 2 ) ( 3 4 )
L:1/8
Q:1/4=108
M:4/4
K:E
V:1 treble 
V:2 treble 
V:3 bass 
V:4 bass 
V:1
 [EG]2 [DF]2 E2 [EA]2 | [EG]2 [DF]2 [EG]4 | [DF]2 (G^A) [FB]2 (dc) | B2 z [DB]4 x | %4
 [Ee]2 [EG]2 [EA]2 [Ec]2 | B2 [EG]2 [DF]4 | [EG]2 (GA) [EB]2 [Ec]2 | [EG]2 [DF]2 [B,E]4 x |] %8
V:2
 x4 E2 x2 | x8 | x2 E2 x G2 x | F3 ^A2 E x2 | x8 | (ED) x6 | x2 E2 x4 | x9 |] %8
V:3
 [E,B,]2 [B,,B,]2 [C,G,]2 [A,,C]2 | [B,,B,]2 [B,,B,]2 [E,B,]4 | [B,,B,]2 (B,C) [D,B,]2 (B,C) | %3
 [F,D]2 [F,C]2 [B,,B,]4 | [G,B,]2 B,2 [C,A,]2 [A,,A,]2 | [F,A,]2 [E,B,]2 [B,,B,]4 | %6
 [E,B,]2 [C,C]2 [G,,B,]2 [A,,E,]2 | B,3 z A, [E,G,]4 |] %8
V:4
 x8 | x8 | x2 E,2 x E,2 x | x8 | x2 (E,=D,) x4 | x8 | x8 | B,,2 B,,2 x5 |] %8

